!!!COM: Anon.
!!!OTL: Yo Tenia Unas Abejas
!! Maria Cadilla de Martinez,
!! Juegos Y Canciones Infantiles de Puerto Rico
!! Talleres Graficos, Cas Baldrich, Brau 93, San Juan, P.R.
!! 1940.  Derechos reservados de la Autora
!! page 135
!! Moderato
**kern
*clefG2
*k[f#]
*M2/2
=1-
{2b
2b
=
8b
8cc
8b
8a#
4b
4g},
=
{2b
2b
=
8b
8cc
8b
8a#
4b
4g},
=
{2b
2b
=
8b
8cc
8a#
8b
4ee
4cc},
=
{4b
4a
4g
4f#
=
1e},
=
{8e
8f#
8g
8e
2b
=
4cc},
4r
{4cc
4b
=
2b
4cc},
4r
=
{8e
8f#
8g
8e
2b},
=
{8e
8f#
8g
8e
2b},
=
1b
==
*-
